X:5608
T:Roger the Weaver
O:england
B:Joyce, P. W.; "Old Irish Folk Music and Songs"
H:From memory.
R:jig
L:1/8
M:6/8
K:G
c2 E EFE|G2 E EFE|c2 E EFE|c2 A dcA|
GED DED|EFE DED|EDE GAB|c3 cBA:|
~G2 A BGG|dGG BGG|~G2 A BGG|c3 cBA|
~G2 A BGG|dGG BGG|Bcd ded|c3 cBA|
~G2 A BGG|dGG BGG|~G2 A BGG|c3 cBA|
GBd gdB|ecA dBG|AGE GAB|c3 cBA||
